src/images/pages/trade-explanation/zh_cn/run-high.svg

<?xml version="1.0" encoding="UTF-8"?>
<svg width="299px" height="197px" viewBox="0 0 299 197" version="1.1" xmlns="http://www.w3.org/2000/svg" xmlns:xlink="http://www.w3.org/1999/xlink">
    <!-- Generator: Sketch 52.6 (67491) - http://www.bohemiancoding.com/sketch -->
    <title>Run high</title>
    <desc>Created with Sketch.</desc>
    <defs>
        <path d="M22.92,9.61 C23.055,9.985 23.19,10.39 23.325,10.84 L29.16,10.84 L29.16,12.16 L15.825,12.16 L15.825,10.84 L21.78,10.84 C21.645,10.495 21.495,10.18 21.33,9.88 L22.92,9.61 Z M26.73,23.5 L25.485,23.5 L25.155,22.225 L26.31,22.285 C26.865,22.285 27.15,22.075 27.15,21.685 L27.15,17.89 L17.85,17.89 L17.85,23.545 L16.5,23.545 L16.5,16.66 L28.5,16.66 L28.5,21.985 C28.5,22.99 27.9,23.5 26.73,23.5 Z M18.18,12.865 L26.835,12.865 L26.835,15.985 L18.18,15.985 L18.18,12.865 Z M25.47,14.905 L25.47,13.945 L19.545,13.945 L19.545,14.905 L25.47,14.905 Z M19.455,18.61 L25.56,18.61 L25.56,21.76 L19.455,21.76 L19.455,18.61 Z M24.3,20.71 L24.3,19.66 L20.73,19.66 L20.73,20.71 L24.3,20.71 Z M41.31,16.84 L40.245,16.84 L40.245,21.82 C40.755,21.625 41.265,21.37 41.775,21.055 L42.015,22.345 C41.145,22.825 40.155,23.215 39.015,23.515 L38.43,22.285 C38.76,22.15 38.94,21.955 38.94,21.715 L38.94,16.84 L38.04,16.84 L38.04,15.535 L38.94,15.535 L38.94,9.76 L40.245,9.76 L40.245,15.535 L44.34,15.535 L44.34,16.84 L42.51,16.84 C42.63,19.15 43.32,21.1 44.565,22.69 L43.605,23.65 C42.195,21.73 41.43,19.465 41.31,16.84 Z M35.46,14.86 L35.295,16.99 L37.74,16.99 C37.74,19.51 37.665,21.19 37.53,22.015 C37.38,22.885 36.735,23.35 35.61,23.425 C35.31,23.425 35.01,23.395 34.695,23.365 L34.38,22.12 C34.68,22.15 34.98,22.18 35.31,22.18 C35.85,22.18 36.165,21.925 36.255,21.43 C36.33,20.935 36.375,19.885 36.375,18.295 L33.9,18.295 L34.245,13.525 L36.315,13.525 L36.315,11.515 L34.11,11.515 L34.11,10.195 L37.695,10.195 L37.695,14.86 L35.46,14.86 Z M31.875,9.895 C32.7,10.615 33.405,11.32 33.975,12.025 L32.985,13.015 C32.475,12.325 31.785,11.59 30.915,10.81 L31.875,9.895 Z M31.545,13.48 C32.355,14.2 33.045,14.935 33.615,15.655 L32.64,16.63 C32.16,15.94 31.47,15.205 30.585,14.395 L31.545,13.48 Z M32.4,17.5 L33.63,17.98 C33.12,19.885 32.55,21.685 31.95,23.365 L30.675,22.825 C31.335,21.085 31.92,19.3 32.4,17.5 Z M43.47,10.51 L44.475,11.32 C43.53,12.91 42.435,14.065 41.175,14.815 L40.455,13.825 C41.625,13.09 42.63,11.98 43.47,10.51 Z" id="path-1"></path>
    </defs>
    <g id="Page-1" stroke="none" stroke-width="1" fill="none" fill-rule="evenodd">
        <g id="Run-high">
            <polygon id="Path" fill="#F1F2F2" points="0 0 299 0 299 197 0 197"></polygon>
            <path d="M1.98671096,1.9798995 L1.98671096,195.020101 L297.013289,195.020101 L297.013289,1.9798995 L1.98671096,1.9798995 Z M299,0 L299,197 L0,197 L0,0 L299,0 Z" id="Path" fill="#C2C2C2" fill-rule="nonzero"></path>
            <path d="M4,55.0670861 L4,53.8631465 L294,53.8631465 L294,55.0670861 L4,55.0670861 Z M4,77.3926677 L4,76.188728 L294,76.188728 L294,77.3926677 L4,77.3926677 Z M4,95.9973189 L4,94.7933792 L294,94.7933792 L294,95.9973189 L4,95.9973189 Z M4,132.936627 L4,131.732687 L294,131.732687 L294,132.936627 L4,132.936627 Z M4,155.532203 L4,154.328263 L294,154.328263 L294,155.532203 L4,155.532203 Z M4,177.857784 L4,176.653845 L294,176.653845 L294,177.857784 L4,177.857784 Z M38.72025,34 L39.9207756,34 L39.9207756,194 L38.72025,194 L38.72025,34 Z M75.8997371,34 L77.1002628,34 L77.1002628,194 L75.8997371,194 L75.8997371,34 Z M113.079225,34 L114.27975,34 L114.27975,194 L113.079225,194 L113.079225,34 Z M146.540763,34 L147.741288,34 L147.741288,194 L146.540763,194 L146.540763,34 Z M183.720249,34 L184.920775,34 L184.920775,194 L183.720249,194 L183.720249,34 Z M220.899737,34 L222.100263,34 L222.100263,194 L220.899737,194 L220.899737,34 Z M258.079224,34 L259.279749,34 L259.279749,194 L258.079224,194 L258.079224,34 Z" id="Shape" fill="#DFDEDE" fill-rule="nonzero"></path>
            <polygon id="Path" fill="#2A3052" fill-rule="nonzero" points="3.90644108 132.819829 3.90644108 131.604863 295.513238 131.604863 295.513238 132.819829"></polygon>
            <polygon id="Path" fill="#C2C2C2" fill-rule="nonzero" points="2.7993468 34.7797904 2.7993468 32.3494829 296.362731 32.3494829 296.362731 34.7797904"></polygon>
            <path d="M187.239564,148.191156 L152.058614,148.191156 L146.640372,139.96769 L141.22213,148.191156 L106.041181,148.191156 C103.407313,148.191156 101.300218,150.33151 101.300218,152.997566 L101.300218,177.818164 C101.300218,180.484219 103.444939,182.624573 106.041181,182.624573 L187.27719,182.624573 C189.911058,182.624573 192.018152,180.484219 192.018152,177.818164 L192.018152,152.997566 C192.018152,150.33151 189.873431,148.191156 187.239564,148.191156 Z" id="Path" fill="#E88024"></path>
            <g id="高涨" fill="#000000">
                <use xlink:href="#path-1"></use>
                <use xlink:href="#path-1"></use>
            </g>
            <path d="M130.903705,87.8267404 L93.54167,114.616552 C93.3977462,114.719751 93.228998,114.782876 93.052679,114.799474 L58.0937925,118.090471 C57.5439388,118.142234 57.0562324,117.738451 57.0044697,117.188598 C56.952707,116.638744 57.3564895,116.151038 57.9063432,116.099275 L92.5960015,112.833623 L129.900423,86.0851221 C130.007467,86.0083679 130.12862,85.9535173 130.256924,85.9237208 L166.795918,77.4380995 L203.144631,53.756333 C203.272356,53.6731185 203.417414,53.6202062 203.56872,53.6016401 L241.008677,49.0075468 C241.55685,48.9402828 242.055761,49.3301369 242.123025,49.8783103 C242.190289,50.4264836 241.800435,50.9253941 241.252261,50.992658 L204.042269,55.5585334 L167.739862,79.2101305 C167.642072,79.2738422 167.533884,79.3199429 167.420196,79.3463452 L130.903705,87.8267404 Z M166.967767,77.3981902 L166.6481,77.534405 L166.795918,77.4380995 L166.967767,77.3981902 Z M92.8652297,112.808278 L92.3762387,112.9912 L92.5960015,112.833623 L92.8652297,112.808278 Z" id="Shape" fill="#2A3052" fill-rule="nonzero"></path>
            <g id="Group" transform="translate(231.250000, 41.000000)">
                <g id="Oval" opacity="0.6" fill="#FFFFFF">
                    <ellipse cx="8.5125" cy="9.225" rx="8.1375" ry="8.475"></ellipse>
                </g>
                <path d="M8.5125,18.02305 C3.83686418,18.02305 0.05195,14.0811578 0.05195,9.225 C0.05195,4.36884218 3.83686418,0.42695 8.5125,0.42695 C13.1881358,0.42695 16.97305,4.36884218 16.97305,9.225 C16.97305,14.0811578 13.1881358,18.02305 8.5125,18.02305 Z M8.5125,17.37695 C12.8252985,17.37695 16.32695,13.7300687 16.32695,9.225 C16.32695,4.71993131 12.8252985,1.07305 8.5125,1.07305 C4.19970152,1.07305 0.69805,4.71993131 0.69805,9.225 C0.69805,13.7300687 4.19970152,17.37695 8.5125,17.37695 Z" id="Oval" fill="#E88024" fill-rule="nonzero"></path>
            </g>
            <g id="Group" transform="translate(83.000000, 104.250000)">
                <g id="Oval" opacity="0.6" transform="translate(1.000000, 0.000000)" fill="#FFFFFF">
                    <ellipse cx="8.1375" cy="8.475" rx="8.1375" ry="8.475"></ellipse>
                </g>
                <path d="M9.1375,18.27305 C4.46186418,18.27305 0.67695,14.3311578 0.67695,9.475 C0.67695,4.61884218 4.46186418,0.67695 9.1375,0.67695 C13.8131358,0.67695 17.59805,4.61884218 17.59805,9.475 C17.59805,14.3311578 13.8131358,18.27305 9.1375,18.27305 Z M9.1375,17.62695 C13.4502985,17.62695 16.95195,13.9800687 16.95195,9.475 C16.95195,4.96993131 13.4502985,1.32305 9.1375,1.32305 C4.82470152,1.32305 1.32305,4.96993131 1.32305,9.475 C1.32305,13.9800687 4.82470152,17.62695 9.1375,17.62695 Z" id="Oval" fill="#E88024" fill-rule="nonzero"></path>
            </g>
            <g id="Group" transform="translate(33.000000, 90.000000)" fill="#2A3052" fill-rule="nonzero">
                <path d="M18.775,0.314 L20.068,0.459 L19.535,3.786 C19.707,3.799 20.593,3.799 22.193,3.786 C22.238,6.228 21.733,9.874 20.706,11.968 C21.81,13.155 22.505,13.961 22.79,14.386 L21.928,15.346 L20.158,13.233 C19.127,14.926 18.228,16.105 17.465,16.771 C17.338,16.588 17.076,16.255 16.679,15.772 C17.679,14.705 18.665,13.614 19.252,12.332 L16.972,10.06 L18.119,4.997 L16.679,4.997 L16.679,3.787 L18.292,3.787 L18.775,0.314 Z M21.02,5.005 L19.39,5.005 C19.04,6.782 18.69,8.327 18.339,9.641 C18.946,10.231 19.432,10.711 19.799,11.077 C20.424,9.744 21.021,5.953 21.021,5.005 L21.02,5.005 Z M26.691,0.337 L27.881,0.745 C26.514,3.582 25.452,5.424 24.696,6.269 C28.144,5.969 30.042,5.759 30.391,5.641 C29.546,4.039 29.056,3.141 28.919,2.95 L30.031,2.41 C31.231,4.475 32.145,6.182 32.774,7.533 L31.565,8.143 L30.936,6.754 C26.577,7.256 23.939,7.516 23.023,7.534 C22.9633298,7.13812396 22.8963183,6.74338933 22.822,6.35 C23.854,5.782 25.144,3.777 26.692,0.337 L26.691,0.337 Z M30.557,16.771 L30.557,15.674 L25.082,15.674 L25.082,16.771 L23.825,16.771 L23.825,9.164 L31.771,9.164 L31.771,16.771 L30.557,16.771 Z M30.547,10.335 L25.113,10.335 L25.113,14.433 L30.548,14.433 L30.548,10.335 L30.547,10.335 Z M1.062,2.482 L1.062,1.565 L14.782,1.565 L14.782,2.482 L12.17,2.482 L12.17,7.342 L15.91,7.342 L15.91,8.753 L12.17,8.753 L12.17,16.41 L10.715,16.41 L10.715,8.753 L5.524,8.742 C5.135,15.279 1.641,16.41 1.204,16.697 C0.896,16.294 0.644,15.927 0.449,15.592 C2.153,14.286 4.089,12.829 4.089,8.742 C2.634,8.749 1.009,8.78 0.055,8.753 L0.055,7.342 L4.09,7.342 L4.09,2.482 L1.062,2.482 Z M10.678,2.738 L5.667,2.738 L5.667,7.31 L10.678,7.31 L10.678,2.738 Z" id="Shape"></path>
            </g>
            <path d="M241.528,80.614 L241.528,81.838 C239.692,82.504 237.622,83.044 235.282,83.476 L235.12,82.216 C237.568,81.82 239.692,81.28 241.528,80.614 Z M238.198,67.654 L239.404,68.122 C238.486,70.462 237.55,72.334 236.614,73.738 C237.468334,73.6283245 238.320491,73.5023014 239.17,73.36 C239.512,72.712 239.872,72.046 240.232,71.362 L241.366,71.776 C239.728,74.818 238.36,76.978 237.262,78.274 C238.63,78.004 239.98,77.644 241.312,77.194 L241.312,78.346 C239.368,79.012 237.496,79.462 235.696,79.696 L235.354,78.526 C235.588,78.418 235.786,78.292 235.948,78.148 C236.632,77.446 237.478,76.258 238.486,74.566 C237.46,74.728 236.434,74.872 235.39,75.016 L235.066,73.828 C235.264,73.738 235.444,73.576 235.606,73.342 C236.614,71.686 237.478,69.796 238.198,67.654 Z M241.312,69.94 L245.614,69.94 L245.614,67.762 L246.928,67.762 L246.928,69.94 L251.212,69.94 L251.212,71.2 L246.928,71.2 L246.928,73.864 L250.69,73.864 L250.69,75.124 L241.906,75.124 L241.906,73.864 L245.614,73.864 L245.614,71.2 L241.312,71.2 L241.312,69.94 Z M250.168,76.924 L250.168,84.16 L248.908,84.16 L248.908,83.296 L243.76,83.296 L243.76,84.16 L242.482,84.16 L242.482,76.924 L250.168,76.924 Z M243.76,82.072 L248.908,82.072 L248.908,78.148 L243.76,78.148 L243.76,82.072 Z M253.408,69.562 L260.446,69.562 L260.446,67.762 L261.778,67.762 L261.778,69.562 L268.78,69.562 L268.78,70.804 L261.778,70.804 L261.778,72.568 L267.448,72.568 L267.448,77.662 L262.876,77.662 C264.172,79.498 266.368,81.118 269.428,82.558 L268.546,83.674 C265.36,81.892 263.128,79.894 261.832,77.662 L261.778,77.662 L261.778,84.196 L260.446,84.196 L260.446,77.662 L260.392,77.662 C259.024,80.11 256.756,82.126 253.57,83.71 L252.814,82.522 C255.802,81.262 257.98,79.642 259.33,77.662 L254.812,77.662 L254.812,72.568 L260.446,72.568 L260.446,70.804 L253.408,70.804 L253.408,69.562 Z M266.152,76.474 L266.152,73.792 L261.778,73.792 L261.778,76.474 L266.152,76.474 Z M260.446,76.474 L260.446,73.792 L256.108,73.792 L256.108,76.474 L260.446,76.474 Z" id="Shape" fill="#2A3052" fill-rule="nonzero"></path>
            <path d="M150.375,165.075 L150.375,172.3 L149.075,172.3 L149.075,166.425 L145.6,166.425 L145.6,172.25 L144.275,172.25 L144.275,165.075 L150.375,165.075 Z M147.35,173.35 C147.25,173.6 147.15,173.825 147.05,174.025 C146.5,175.025 145.625,175.8 144.375,176.35 L143.625,175.175 C144.775,174.65 145.575,173.975 146.05,173.175 C146.45,172.3 146.675,171.175 146.725,169.775 L146.725,167.6 L147.925,167.6 L147.925,169.775 C147.9,170.625 147.825,171.4 147.7,172.075 C148.65,172.9 149.45,173.725 150.1,174.55 L149.15,175.5 C148.675,174.8 148.075,174.1 147.35,173.35 Z M136.45,155.075 L146.75,155.075 C146.5,154.525 146.25,154.05 145.975,153.6 L147.775,153.3 C148.025,153.825 148.25,154.425 148.45,155.075 L158.55,155.075 L158.55,156.375 L140.375,156.375 L140.375,157.675 L156.85,157.675 L156.85,158.95 L138.7,158.95 L138.7,156.375 L136.45,156.375 L136.45,155.075 Z M139.4,160.125 L155.525,160.125 L155.525,163.85 L139.4,163.85 L139.4,160.125 Z M153.775,162.675 L153.775,161.3 L141.15,161.3 L141.15,162.675 L153.775,162.675 Z M139.025,169.475 C139,170.1 138.95,170.7 138.9,171.25 L141.65,171.25 L141.65,169.475 L139.025,169.475 Z M141.65,168.3 L141.65,166.5 L139.025,166.5 L139.025,168.3 L141.65,168.3 Z M138.725,172.425 C138.425,174.05 137.875,175.425 137.1,176.575 L135.975,175.55 C137.025,173.95 137.55,171.95 137.575,169.5 L137.575,165.125 L143.075,165.125 L143.075,174.75 C143.075,175.875 142.475,176.45 141.3,176.45 L140.275,176.45 L139.9,175.1 C140.225,175.15 140.55,175.175 140.85,175.175 C141.375,175.175 141.65,174.85 141.65,174.25 L141.65,172.425 L138.725,172.425 Z M157.625,176.175 L156.75,176.175 C155.85,176.175 155.425,175.675 155.425,174.725 L155.425,166.55 L153.05,166.55 L153.05,169.125 C153.05,170.975 152.925,172.4 152.675,173.4 C152.4,174.4 151.825,175.45 150.95,176.55 L149.825,175.575 C150.575,174.675 151.075,173.85 151.325,173.075 C151.575,172.275 151.7,170.95 151.7,169.125 L151.7,165.125 L156.775,165.125 L156.775,174.3 C156.775,174.675 156.925,174.875 157.25,174.875 L157.4,174.875 C157.55,174.875 157.675,174.75 157.75,174.5 C157.825,174.25 157.9,173.425 157.975,172 L159.125,172.4 C158.975,174.1 158.825,175.15 158.65,175.575 C158.45,175.975 158.125,176.175 157.625,176.175 Z M154.05,168.775 C154.5,169.775 154.925,170.825 155.275,171.975 L154.325,172.4 C153.95,171.15 153.55,170.05 153.1,169.1 L154.05,168.775 Z M164.23584,168.98291 L162.197266,168.98291 L162.038574,156.226562 L164.406738,156.226562 L164.23584,168.98291 Z M161.953125,172.864746 C161.953125,172.498533 162.065022,172.191326 162.288818,171.943115 C162.512615,171.694904 162.844236,171.570801 163.283691,171.570801 C163.723147,171.570801 164.056802,171.694904 164.284668,171.943115 C164.512534,172.191326 164.626465,172.498533 164.626465,172.864746 C164.626465,173.230959 164.512534,173.534097 164.284668,173.77417 C164.056802,174.014243 163.723147,174.134277 163.283691,174.134277 C162.844236,174.134277 162.512615,174.014243 162.288818,173.77417 C162.065022,173.534097 161.953125,173.230959 161.953125,172.864746 Z" id="赢!" fill="#FFFFFF" fill-rule="nonzero"></path>
        </g>
    </g>
</svg>

<svg width="299" height="197" xmlns="http://www.w3.org/2000/svg" xmlns:xlink="http://www.w3.org/1999/xlink"><defs><path d="M22.92 9.61c.135.375.27.78.405 1.23h5.835v1.32H15.825v-1.32h5.955a8.105 8.105 0 0 0-.45-.96l1.59-.27zm3.81 13.89h-1.245l-.33-1.275 1.155.06c.555 0 .84-.21.84-.6V17.89h-9.3v5.655H16.5V16.66h12v5.325c0 1.005-.6 1.515-1.77 1.515zm-8.55-10.635h8.655v3.12H18.18v-3.12zm7.29 2.04v-.96h-5.925v.96h5.925zm-6.015 3.705h6.105v3.15h-6.105v-3.15zm4.845 2.1v-1.05h-3.57v1.05h3.57zm17.01-3.87h-1.065v4.98c.51-.195 1.02-.45 1.53-.765l.24 1.29c-.87.48-1.86.87-3 1.17l-.585-1.23c.33-.135.51-.33.51-.57V16.84h-.9v-1.305h.9V9.76h1.305v5.775h4.095v1.305h-1.83c.12 2.31.81 4.26 2.055 5.85l-.96.96c-1.41-1.92-2.175-4.185-2.295-6.81zm-5.85-1.98l-.165 2.13h2.445c0 2.52-.075 4.2-.21 5.025-.15.87-.795 1.335-1.92 1.41-.3 0-.6-.03-.915-.06l-.315-1.245c.3.03.6.06.93.06.54 0 .855-.255.945-.75.075-.495.12-1.545.12-3.135H33.9l.345-4.77h2.07v-2.01H34.11v-1.32h3.585v4.665H35.46zm-3.585-4.965c.825.72 1.53 1.425 2.1 2.13l-.99.99c-.51-.69-1.2-1.425-2.07-2.205l.96-.915zm-.33 3.585c.81.72 1.5 1.455 2.07 2.175l-.975.975c-.48-.69-1.17-1.425-2.055-2.235l.96-.915zm.855 4.02l1.23.48a69.345 69.345 0 0 1-1.68 5.385l-1.275-.54A55.08 55.08 0 0 0 32.4 17.5zm11.07-6.99l1.005.81c-.945 1.59-2.04 2.745-3.3 3.495l-.72-.99c1.17-.735 2.175-1.845 3.015-3.315z" id="a"/></defs><g fill="none" fill-rule="evenodd"><path fill="#F1F2F2" d="M0 0h299v197H0z"/><path d="M1.987 1.98v193.04h295.026V1.98H1.987zM299 0v197H0V0h299z" fill="#C2C2C2" fill-rule="nonzero"/><path d="M4 55.067v-1.204h290v1.204H4zm0 22.326v-1.204h290v1.204H4zm0 18.604v-1.204h290v1.204H4zm0 36.94v-1.204h290v1.204H4zm0 22.595v-1.204h290v1.204H4zm0 22.326v-1.204h290v1.204H4zM38.72 34h1.2v160h-1.2V34zm37.18 0h1.2v160h-1.2V34zm37.18 0h1.2v160h-1.2V34zm33.46 0h1.201v160h-1.2V34zm37.18 0h1.2v160h-1.2V34zm37.18 0h1.2v160h-1.2V34zm37.18 0h1.2v160h-1.2V34z" fill="#DFDEDE" fill-rule="nonzero"/><path fill="#2A3052" fill-rule="nonzero" d="M3.906 132.82v-1.215h291.607v1.215z"/><path fill="#C2C2C2" fill-rule="nonzero" d="M2.8 34.78v-2.43h293.563v2.43z"/><path d="M187.24 148.191h-35.181l-5.419-8.223-5.418 8.223h-35.18c-2.635 0-4.742 2.14-4.742 4.807v24.82c0 2.666 2.145 4.807 4.741 4.807h81.236c2.634 0 4.741-2.14 4.741-4.807v-24.82c0-2.666-2.145-4.807-4.778-4.807z" fill="#E88024"/><g fill="#000"><use xlink:href="#a"/><use xlink:href="#a"/></g><path d="M130.904 87.827l-37.362 26.79a1 1 0 0 1-.49.182l-34.958 3.291a1 1 0 1 1-.188-1.99l34.69-3.266L129.9 86.085a1 1 0 0 1 .357-.161l36.539-8.486 36.349-23.682a1 1 0 0 1 .424-.154l37.44-4.594a1 1 0 1 1 .243 1.985l-37.21 4.566L167.74 79.21a1 1 0 0 1-.32.136l-36.516 8.48zm36.064-10.429l-.32.136.148-.096.172-.04zm-74.103 35.41l-.489.183.22-.157.27-.026z" fill="#2A3052" fill-rule="nonzero"/><ellipse cx="8.512" cy="9.225" rx="8.137" ry="8.475" opacity=".6" fill="#FFF" transform="translate(231.25 41)"/><path d="M239.762 59.023c-4.675 0-8.46-3.942-8.46-8.798s3.785-8.798 8.46-8.798c4.676 0 8.461 3.942 8.461 8.798s-3.785 8.798-8.46 8.798zm0-.646c4.313 0 7.815-3.647 7.815-8.152 0-4.505-3.502-8.152-7.815-8.152-4.312 0-7.814 3.647-7.814 8.152 0 4.505 3.502 8.152 7.814 8.152z" fill="#E88024" fill-rule="nonzero"/><ellipse cx="8.137" cy="8.475" rx="8.137" ry="8.475" opacity=".6" transform="translate(84 104.25)" fill="#FFF"/><path d="M92.138 122.523c-4.676 0-8.461-3.942-8.461-8.798s3.785-8.798 8.46-8.798c4.676 0 8.461 3.942 8.461 8.798s-3.785 8.798-8.46 8.798zm0-.646c4.312 0 7.814-3.647 7.814-8.152 0-4.505-3.502-8.152-7.814-8.152-4.313 0-7.815 3.647-7.815 8.152 0 4.505 3.502 8.152 7.815 8.152z" fill="#E88024" fill-rule="nonzero"/><path d="M51.775 90.314l1.293.145-.533 3.327c.172.013 1.058.013 2.658 0 .045 2.442-.46 6.088-1.487 8.182 1.104 1.187 1.799 1.993 2.084 2.418l-.862.96-1.77-2.113c-1.031 1.693-1.93 2.872-2.693 3.538a19.044 19.044 0 0 0-.786-.999c1-1.067 1.986-2.158 2.573-3.44l-2.28-2.272 1.147-5.063h-1.44v-1.21h1.613l.483-3.473zm2.245 4.691h-1.63c-.35 1.777-.7 3.322-1.051 4.636.607.59 1.093 1.07 1.46 1.436.625-1.333 1.222-5.124 1.222-6.072h-.001zm5.671-4.668l1.19.408c-1.367 2.837-2.429 4.679-3.185 5.524 3.448-.3 5.346-.51 5.695-.628-.845-1.602-1.335-2.5-1.472-2.691l1.112-.54c1.2 2.065 2.114 3.772 2.743 5.123l-1.209.61-.629-1.389c-4.359.502-6.997.762-7.913.78a32.36 32.36 0 0 0-.201-1.184c1.032-.568 2.322-2.573 3.87-6.013h-.001zm3.866 16.434v-1.097h-5.475v1.097h-1.257v-7.607h7.946v7.607h-1.214zm-.01-6.436h-5.434v4.098h5.435v-4.098h-.001zm-29.485-7.853v-.917h13.72v.917H45.17v4.86h3.74v1.411h-3.74v7.657h-1.455v-7.657l-5.191-.011c-.389 6.537-3.883 7.668-4.32 7.955-.308-.403-.56-.77-.755-1.105 1.704-1.306 3.64-2.763 3.64-6.85-1.455.007-3.08.038-4.034.011v-1.411h4.035v-4.86h-3.028zm9.616.256h-5.011v4.572h5.011v-4.572zM241.528 80.614v1.224c-1.836.666-3.906 1.206-6.246 1.638l-.162-1.26c2.448-.396 4.572-.936 6.408-1.602zm-3.33-12.96l1.206.468c-.918 2.34-1.854 4.212-2.79 5.616a67.48 67.48 0 0 0 2.556-.378c.342-.648.702-1.314 1.062-1.998l1.134.414c-1.638 3.042-3.006 5.202-4.104 6.498 1.368-.27 2.718-.63 4.05-1.08v1.152c-1.944.666-3.816 1.116-5.616 1.35l-.342-1.17c.234-.108.432-.234.594-.378.684-.702 1.53-1.89 2.538-3.582-1.026.162-2.052.306-3.096.45l-.324-1.188c.198-.09.378-.252.54-.486 1.008-1.656 1.872-3.546 2.592-5.688zm3.114 2.286h4.302v-2.178h1.314v2.178h4.284v1.26h-4.284v2.664h3.762v1.26h-8.784v-1.26h3.708V71.2h-4.302v-1.26zm8.856 6.984v7.236h-1.26v-.864h-5.148v.864h-1.278v-7.236h7.686zm-6.408 5.148h5.148v-3.924h-5.148v3.924zm9.648-12.51h7.038v-1.8h1.332v1.8h7.002v1.242h-7.002v1.764h5.67v5.094h-4.572c1.296 1.836 3.492 3.456 6.552 4.896l-.882 1.116c-3.186-1.782-5.418-3.78-6.714-6.012h-.054v6.534h-1.332v-6.534h-.054c-1.368 2.448-3.636 4.464-6.822 6.048l-.756-1.188c2.988-1.26 5.166-2.88 6.516-4.86h-4.518v-5.094h5.634v-1.764h-7.038v-1.242zm12.744 6.912v-2.682h-4.374v2.682h4.374zm-5.706 0v-2.682h-4.338v2.682h4.338z" fill="#2A3052" fill-rule="nonzero"/><path d="M150.375 165.075v7.225h-1.3v-5.875H145.6v5.825h-1.325v-7.175h6.1zm-3.025 8.275c-.1.25-.2.475-.3.675-.55 1-1.425 1.775-2.675 2.325l-.75-1.175c1.15-.525 1.95-1.2 2.425-2 .4-.875.625-2 .675-3.4V167.6h1.2v2.175c-.025.85-.1 1.625-.225 2.3.95.825 1.75 1.65 2.4 2.475l-.95.95c-.475-.7-1.075-1.4-1.8-2.15zm-10.9-18.275h10.3c-.25-.55-.5-1.025-.775-1.475l1.8-.3c.25.525.475 1.125.675 1.775h10.1v1.3h-18.175v1.3h16.475v1.275H138.7v-2.575h-2.25v-1.3zm2.95 5.05h16.125v3.725H139.4v-3.725zm14.375 2.55V161.3H141.15v1.375h12.625zm-14.75 6.8a34.912 34.912 0 0 1-.125 1.775h2.75v-1.775h-2.625zm2.625-1.175v-1.8h-2.625v1.8h2.625zm-2.925 4.125c-.3 1.625-.85 3-1.625 4.15l-1.125-1.025c1.05-1.6 1.575-3.6 1.6-6.05v-4.375h5.5v9.625c0 1.125-.6 1.7-1.775 1.7h-1.025l-.375-1.35c.325.05.65.075.95.075.525 0 .8-.325.8-.925v-1.825h-2.925zm18.9 3.75h-.875c-.9 0-1.325-.5-1.325-1.45v-8.175h-2.375v2.575c0 1.85-.125 3.275-.375 4.275-.275 1-.85 2.05-1.725 3.15l-1.125-.975c.75-.9 1.25-1.725 1.5-2.5.25-.8.375-2.125.375-3.95v-4h5.075v9.175c0 .375.15.575.475.575h.15c.15 0 .275-.125.35-.375.075-.25.15-1.075.225-2.5l1.15.4c-.15 1.7-.3 2.75-.475 3.175-.2.4-.525.6-1.025.6zm-3.575-7.4c.45 1 .875 2.05 1.225 3.2l-.95.425c-.375-1.25-.775-2.35-1.225-3.3l.95-.325zm10.186.208h-2.039l-.158-12.756h2.368l-.171 12.756zm-2.283 3.882c0-.366.112-.674.336-.922.224-.248.555-.372.995-.372.44 0 .773.124 1 .372.229.248.342.556.342.922s-.113.67-.341.91c-.228.24-.562.36-1.001.36-.44 0-.771-.12-.995-.36-.224-.24-.336-.544-.336-.91z" fill="#FFF" fill-rule="nonzero"/></g></svg>
